src/Components/InputPassWithHide/images/bi_eye-slash-fill.svg

<svg width="16" height="16" viewBox="0 0 16 16" fill="none" xmlns="http://www.w3.org/2000/svg">
<path d="M10.79 12.912L9.176 11.297C8.55184 11.5202 7.87715 11.5615 7.23042 11.4162C6.58369 11.2709 5.99153 10.9449 5.52282 10.4762C5.05411 10.0075 4.72814 9.41531 4.58283 8.76858C4.43752 8.12185 4.47885 7.44716 4.702 6.823L2.642 4.763C0.938 6.278 0 8 0 8C0 8 3 13.5 8 13.5C8.9604 13.4967 9.90994 13.2965 10.79 12.912ZM5.21 3.088C6.09005 2.70342 7.03959 2.50331 8 2.5C13 2.5 16 8 16 8C16 8 15.061 9.721 13.359 11.238L11.297 9.176C11.5202 8.55184 11.5615 7.87715 11.4162 7.23042C11.2709 6.58369 10.9449 5.99153 10.4762 5.52282C10.0075 5.05411 9.41531 4.72814 8.76858 4.58283C8.12185 4.43752 7.44716 4.47885 6.823 4.702L5.21 3.089V3.088Z" fill="black"/>
<path d="M5.525 7.646C5.46999 8.03031 5.50524 8.42215 5.62796 8.79047C5.75068 9.1588 5.95749 9.49347 6.23201 9.76799C6.50653 10.0425 6.8412 10.2493 7.20953 10.372C7.57785 10.4948 7.96969 10.53 8.354 10.475L5.524 7.646H5.525ZM10.475 8.354L7.646 5.524C8.03031 5.469 8.42215 5.50425 8.79047 5.62697C9.15879 5.74969 9.49347 5.9565 9.76799 6.23102C10.0425 6.50553 10.2493 6.84021 10.372 7.20853C10.4948 7.57685 10.53 7.96869 10.475 8.353V8.354ZM13.646 14.354L1.646 2.354L2.354 1.646L14.354 13.646L13.646 14.354Z" fill="black"/>
</svg>

<svg width="16" height="16" fill="none" xmlns="http://www.w3.org/2000/svg"><path d="m10.79 12.912-1.614-1.615a3.5 3.5 0 0 1-4.474-4.474l-2.06-2.06C.938 6.278 0 8 0 8s3 5.5 8 5.5a7.03 7.03 0 0 0 2.79-.588ZM5.21 3.088A7.028 7.028 0 0 1 8 2.5c5 0 8 5.5 8 5.5s-.939 1.721-2.641 3.238l-2.062-2.062a3.5 3.5 0 0 0-4.474-4.474L5.21 3.089v-.001Z" fill="#000"/><path d="M5.525 7.646a2.5 2.5 0 0 0 2.829 2.829l-2.83-2.829h.001Zm4.95.708-2.829-2.83a2.5 2.5 0 0 1 2.829 2.829v.001Zm3.171 6-12-12 .708-.708 12 12-.708.708Z" fill="#000"/></svg>
